X:1
T:The Little Brown Church In The Vale
T:The Little Brown Church In The Vale
T:W. S. Pitts
C:W. S. Pitts
%%score [ 1 2 3 4 ]
L:1/8
Q:1/4=68
M:4/4
K:Bb
V:1 treble nm="Soprano"
V:2 treble nm="Alto"
V:3 treble-8 nm="Tenor"
V:4 bass nm="Bass"
V:1
"^Moderato" F3/2- F/ | F2 G3/2 F/ F- F B3/2 c/ | d4 c2 c2 | F2 A B c2 B3/2 A/ | B6 (BA) | %5
w: 1.There's a|church in the val- ley by the|wild- wood, No|lov- li- er place in the|dale; No _|
w: 2.How _|sweet on a bright _ Sab- bath|morn- ing To|list to the clear ring- ing|bell; Its _|
 G2 G3/2- G/ B2 A3/2 G/ | (F2 B2) F2 (A3/2 G/) | F- F F- F F2 A3/2 c/ | B6 || z2 | z8 | %11
w: spot is so dear to my|child- * hood As the|lit- tle brown _ church in the|vale.|||
w: tones so _ sweet- ly are|call- * ing, O _|come _ to the church in the|vale.|||
 F2 G3/2 F/ F2 B3/2 c/ | d4 c2 c2 | F2 A3/2 B/ c2 B3/2 A/ | B6 (BA) | G2 G3/2 G/ B2 A3/2 G/ | %16
w: Come to the church in the|wild- wood, O|come to the church in the|dale; No _|spot is so dear to my|
w: |||||
 (F2 B2) F2 A3/2 G/ | F F F2 F2 A3/2 c/ | B6 |] %19
w: child- * hood As the|lit- tle brown church in the|vale.|
w: |||
V:2
 D3/2- D/ | D2 E3/2 D/ D- D F3/2 F/ | F4 F2 F2 | F2 F F A2 F3/2 E/ | D6 F2 | %5
w: 1.There's a|church in the val- ley by the|wild- wood, No|lov- li- er place in the|dale; No|
w: 2.How _|sweet on a bright _ Sab- bath|morn- ing To|list to the clear ring- ing|bell; Its|
 E2 E3/2- E/ G2 F3/2 E/ | D4 D2 (E3/2 E/) | F- F D- D E2 E3/2 E/ | D6 || (FE) | D z D z D z D z | %11
w: spot is so dear to my|child- hood As the|lit- tle brown _ church in the|vale.|O _|come, come, come, come,|
w: tones so _ sweet- ly are|call- ing, O _|come _ to the church in the|vale.|||
 D z D z D z D z | F z F z E z E z | E z E z E z E z | D2 D2 D2 F2 | E2 E3/2 E/ G2 F3/2 E/ | %16
w: come, come, come, come,|come, come, come, come,|come, come, come, come,|come, come, come. No|spot is to dear to my|
w: |||||
 D4 D2 E3/2 E/ | D D D2 C2 E3/2 E/ | D6 |] %19
w: child- hood As the|lit- tle brown church in the|vale.|
w: |||
V:3
 B3/2- B/ | B2 B3/2 B/ B- B B3/2 A/ | B4 A2 A2 | A2 c d e2 d3/2 c/ | B6 B2 | %5
w: 1.There's a|church in the val- ley by the|wild- wood, No|lov- li- er place in the|dale; No|
w: 2.How _|sweet on a bright _ Sab- bath|morn- ing To|list to the clear ring- ing|bell; Its|
 B2 B3/2- B/ e2 B3/2 B/ | (B2 F2) B2 (c3/2 c/) | d- d B- B A2 c3/2 A/ | B6 || (dc) | %10
w: spot is so dear to my|child- * hood As the|lit- tle brown _ church in the|vale.|O _|
w: tones so _ sweet- ly are|call- * ing; O _|come _ to the church in the|vale.||
 B z F z F z F z | B z B z B z B z | B z B z A z A z | A z A z A z c z | B2 F2 F2 B2 | %15
w: come, come, come, come,|come, come, come, come,|come, come, come, come,|come, come, come, come,|come, come, come. No|
w: |||||
 B2 B3/2 B/ e2 B3/2 B/ | (B2 F2) B2 c3/2 c/ | d B B2 A2 c3/2 A/ | B6 |] %19
w: spot is to dear to my|child- * hood As the|lit- tle brown church in the|vale.|
w: ||||
V:4
 B,,3/2- B,,/ | B,,2 B,,3/2 B,,/ B,,- B,, D,3/2 F,/ | (B,2 D,2) F,2 F,2 | F,2 F, F, F,2 F,3/2 F,/ | %4
w: 1.There's a|church in the val- ley by the|wild- * wood, No|lov- li- er place in the|
w: 2.How _|sweet on a bright _ Sab- bath|morn- * ing To|list to the clear ring- ing|
 B,,6 D,2 | E,2 E,3/2- E,/ E,2 E,3/2 E,/ | B,,4 B,,2 (E,3/2 E,/) | F,- F, F,- F, F,2 F,3/2 F,/ | %8
w: dale; No|spot is so dear to my|child- hood As the|lit- tle brown _ church in the|
w: bell; Its|tones so _ sweet- ly are|call- ing; O _|come _ to the church in the|
 B,,6 || F,2 | B,, z B,, z B,, z B,, z | B,, z B,, z B,, z B,, z | B,, z B,, z F, z F, z | %13
w: vale.|O|come, come, come, come,|come, come, come, come,|come, come, come, come,|
w: vale.|||||
 F, z F, z F, z F, z | B,,2 B,,2 B,,2 D,2 | E,2 E,3/2 E,/ E,2 E,3/2 E,/ | B,,4 B,,2 E,3/2 E,/ | %17
w: come, come, come, come,|come, come, come. No|spot is to dear to my|child- hood As the|
w: ||||
 F, F, F,2 F,2 F,3/2 F,/ | B,,6 |] %19
w: lit- tle brown church in the|vale.|
w: ||

